src/main/resources/icons/AllIcons/vcs/branch.svg

<!-- Copyright 2000-2021 JetBrains s.r.o. Use of this source code is governed by the Apache 2.0 license that can be found in the LICENSE file. -->
<svg width="16" height="16" viewBox="0 0 16 16" fill="none" xmlns="http://www.w3.org/2000/svg">
<g id="idea/community/platform/icons/src/vcs/branch">
<g id="Group">
<path id="Vector" d="M12.1232 2.67714C11.7828 2.33692 11.3696 2.16676 10.8834 2.16676C10.3975 2.16676 9.98427 2.33682 9.64395 2.67714C9.30375 3.01737 9.13366 3.43051 9.13366 3.91672C9.13366 4.23268 9.21242 4.52588 9.37041 4.79626C9.52838 5.06666 9.74087 5.27787 10.0084 5.42971C10.0084 5.74567 9.98273 6.02377 9.93118 6.26375C9.87939 6.50373 9.79441 6.71478 9.67597 6.8972C9.55721 7.07953 9.43442 7.23436 9.30672 7.36203C9.17899 7.4897 8.99973 7.60961 8.76885 7.72208C8.538 7.83449 8.32366 7.92857 8.12624 8.00464C7.92881 8.08047 7.66288 8.17008 7.32869 8.27342C6.72097 8.46187 6.25317 8.63491 5.92501 8.793V4.26292C6.19238 4.11111 6.40507 3.89993 6.56303 3.62953C6.72097 3.35912 6.79995 3.06589 6.79995 2.74993C6.79995 2.26388 6.62988 1.85064 6.28956 1.51042C5.94937 1.17022 5.53623 1 5.05005 1C4.56383 1 4.15069 1.1701 3.81037 1.51042C3.47018 1.85064 3.29999 2.26388 3.29999 2.74993C3.29999 3.06589 3.37897 3.35912 3.5369 3.62953C3.69487 3.89993 3.90752 4.11111 4.17492 4.26292V11.7371C3.90752 11.8888 3.69487 12.1002 3.5369 12.3705C3.37897 12.641 3.29999 12.9343 3.29999 13.2501C3.29999 13.7362 3.47005 14.1494 3.81037 14.4896C4.15069 14.8298 4.56393 15 5.05005 15C5.53614 15 5.94937 14.8298 6.28956 14.4896C6.62979 14.1494 6.79995 13.7362 6.79995 13.2501C6.79995 12.9343 6.72097 12.641 6.56303 12.3705C6.40504 12.1002 6.19238 11.8888 5.92501 11.7371V11.5001C5.92501 11.0809 6.05109 10.7772 6.30323 10.5888C6.55537 10.4003 7.07035 10.1846 7.84823 9.94163C8.66867 9.68029 9.28553 9.43405 9.6987 9.20307C11.0598 8.43155 11.7464 7.17367 11.7585 5.42968C12.0261 5.27787 12.2386 5.06663 12.3965 4.79622C12.5544 4.52582 12.6335 4.23265 12.6335 3.91669C12.6336 3.4306 12.4634 3.01746 12.1232 2.67714Z" fill="#6E6E6E"/>
</g>
</g>
</svg>

<svg width="16" height="16" viewBox="0 0 16 16" fill="none" xmlns="http://www.w3.org/2000/svg"><rect id="frame" width="16" height="16" fill="none"/><path d="M12.123 2.677c-.34-.34-.753-.51-1.24-.51-.485 0-.899.17-1.239.51-.34.34-.51.754-.51 1.24 0 .316.078.609.236.88.158.27.37.48.638.633 0 .316-.025.594-.077.834a1.88 1.88 0 0 1-.255.633 2.867 2.867 0 0 1-.37.465 1.992 1.992 0 0 1-.537.36c-.231.112-.445.207-.643.283a13.21 13.21 0 0 1-.797.268c-.608.189-1.076.362-1.404.52v-4.53c.267-.152.48-.363.638-.633.158-.27.237-.564.237-.88 0-.486-.17-.9-.51-1.24C5.95 1.17 5.536 1 5.05 1s-.9.17-1.24.51c-.34.34-.51.754-.51 1.24 0 .316.079.61.237.88.158.27.37.481.638.633v7.474a1.7 1.7 0 0 0-.638.633c-.158.271-.237.564-.237.88 0 .486.17.9.51 1.24.34.34.754.51 1.24.51s.9-.17 1.24-.51c.34-.34.51-.754.51-1.24 0-.316-.079-.609-.237-.88a1.701 1.701 0 0 0-.638-.633V11.5c0-.42.126-.723.378-.911.252-.189.767-.404 1.545-.647.82-.262 1.438-.508 1.85-.739 1.362-.771 2.048-2.03 2.06-3.773a1.7 1.7 0 0 0 .639-.634c.157-.27.236-.563.236-.88 0-.485-.17-.899-.51-1.239z" fill="#6E6E6E"/></svg>
